svg/u1f435.svg

<svg viewBox="0 0 128 128" xmlns="http://www.w3.org/2000/svg">
  <g>
    <path d="M107.52,85.21c-2.93-0.12,1.13-31.81,1.13-31.81s0.79-0.04,2.01,0.07 c-4.92-20.61-21.45-36.64-47.01-36.64c-26.12,0-39.97,16.05-44.88,35.91c0.44-0.02,0.69-0.01,0.69-0.01s4.97,33.04,1.44,32.58 c-0.55-0.07-1.34-0.18-2.3-0.38c4.89,16.68,19.36,26.48,46.27,26.56c24.57,0.08,39.12-9.92,44.71-26.44 C108.69,85.19,107.98,85.23,107.52,85.21z M93.91,86.98c-4.09,7.84-15.69,13.4-29.61,13.15c-17.9-0.33-28.86-5.63-31.84-14.47 c-2.91-8.61,3.34-13.37,3.01-19.99c-0.33-6.63-6.74-17.12,1.8-23.42c12.41-9.16,17.81,3.25,26.43,2.98 c8.12-0.25,16.92-11.4,26.68-2.49c8.95,8.17,1.88,15.74,2.1,23.47C92.66,72.62,98.98,77.25,93.91,86.98z" fill="#B6885A"/>
    <path d="M90.37,42.74c-9.75-8.91-18.56,2.24-26.68,2.49c-8.62,0.26-14.02-12.14-26.43-2.98 c-8.53,6.3-2.13,16.79-1.8,23.42c0.33,6.63-5.92,11.38-3.01,19.99c2.98,8.84,13.95,14.14,31.84,14.47 c13.92,0.26,25.52-5.3,29.61-13.15c5.07-9.73-1.25-14.36-1.44-20.77C92.25,58.48,99.32,50.91,90.37,42.74z M72.36,59.89 c0.28-3.68,2.73-7.17,6.64-6.79c3.08,0.3,5.01,2.7,4.9,7.01c-0.14,5.58-3.59,7.36-6.67,7.13S72.09,63.57,72.36,59.89z M64.15,66.97 c4.22,0.08,5.77,0.09,5.63,2.2c-0.08,1.33-2.82,3.97-5.47,4.02c-2.24,0.04-5.55-2.2-5.76-4.14C58.33,66.85,60.01,66.89,64.15,66.97 z M48.36,53.43c3.26-0.26,6.24,1.56,6.7,6.15c0.49,4.84-2.19,8.09-5.45,8.42c-3.25,0.33-6.22-2.58-6.62-6.5 C42.6,57.58,44.22,53.76,48.36,53.43z M84.52,82.34c-0.22,4.2-7.4,9.22-20.49,9.11c-13.7-0.12-20.6-4.81-20.77-8.84 c-0.16-3.98,9-6.43,20.27-6.3C81.59,76.54,84.68,79.36,84.52,82.34z" fill="#FFCD88"/>
    <path d="M49.62,68c3.25-0.33,5.94-3.58,5.45-8.42c-0.47-4.59-3.44-6.41-6.7-6.15 c-4.14,0.33-5.76,4.15-5.36,8.07C43.4,65.42,46.36,68.33,49.62,68z" fill="#393531"/>
    <path d="M77.22,67.25c3.08,0.23,6.53-1.55,6.67-7.13C84,55.8,82.07,53.4,79,53.1 c-3.91-0.38-6.36,3.11-6.64,6.79C72.09,63.57,74.14,67.02,77.22,67.25z" fill="#393531"/>
    <path d="M64.32,73.19c2.65-0.05,5.39-2.69,5.47-4.02c0.13-2.11-1.41-2.11-5.63-2.2 c-4.14-0.08-5.83-0.12-5.59,2.07C58.77,70.99,62.08,73.23,64.32,73.19z" fill="#393531"/>
    <path d="M63.53,76.32c-11.27-0.14-20.43,2.32-20.27,6.3c0.17,4.03,7.07,8.72,20.77,8.84 c13.09,0.11,20.27-4.92,20.49-9.11C84.68,79.36,81.59,76.54,63.53,76.32z" fill="#FF6B17"/>
    <path d="M123.95,67.96c0.17-11.92-9.11-14.11-13.3-14.49c0.49,2.05,0.87,4.14,1.12,6.26 c2.86,0.5,7.19,2.5,6.99,8.8c-0.19,5.99-4.77,8.87-7.46,9.65c-0.43,2.4-1.01,4.7-1.75,6.88C114.28,84.38,123.76,80.94,123.95,67.96 z" fill="#B6885A"/>
    <path d="M109.49,78.31c-0.52-0.34,0.02-3.87,0.11-8.78c0.08-4.57-0.54-9.62-0.22-9.83 c0.18-0.12,1.15-0.18,2.4,0.04c-0.26-2.13-0.63-4.22-1.12-6.26c-1.22-0.11-2.01-0.07-2.01-0.07s-4.05,31.69-1.13,31.81 c0.46,0.02,1.17-0.01,2.05-0.14c0.74-2.18,1.32-4.48,1.75-6.88C110.42,78.44,109.73,78.47,109.49,78.31z" fill="#B6885A"/>
    <path d="M8.96,67.98c0-8.17,6.97-9.15,8.53-8.76c0.32-2.19,0.75-4.35,1.27-6.47 c-2.95,0.13-14.41,1.49-14.89,14.74c-0.47,12.86,9.49,16.39,14.71,17.46c-0.63-2.15-1.1-4.41-1.42-6.79 C14.47,77.59,8.96,75.09,8.96,67.98z" fill="#B6885A"/>
    <path d="M19.45,52.73c0,0-0.25-0.01-0.69,0.01c-0.52,2.12-0.95,4.28-1.27,6.47 c0.15,0.04,0.27,0.08,0.31,0.14c0.12,0.18-0.03,4.56,0.22,9.06c0.27,4.78,0.94,9.69,0.55,9.83c-0.18,0.07-0.7,0.04-1.4-0.1 c0.32,2.37,0.79,4.64,1.42,6.79c0.96,0.19,1.75,0.31,2.3,0.38C24.42,85.78,19.45,52.73,19.45,52.73z" fill="#B6885A"/>
    <path d="M8.96,67.98c0,7.11,5.51,9.61,8.21,10.17c-0.51-3.82-0.63-7.92-0.37-12.27 c0.13-2.24,0.36-4.46,0.69-6.66C15.93,58.83,8.96,59.81,8.96,67.98z" fill="#FFCD88"/>
    <path d="M17.17,78.15c0.7,0.14,1.22,0.17,1.4,0.1c0.39-0.15-0.28-5.05-0.55-9.83 c-0.26-4.5-0.1-8.88-0.22-9.06c-0.04-0.06-0.16-0.1-0.31-0.14c-0.32,2.2-0.56,4.42-0.69,6.66C16.54,70.24,16.66,74.33,17.17,78.15z " fill="#FFCD88"/>
    <path d="M111.31,78.19c2.69-0.78,7.27-3.66,7.46-9.65c0.2-6.3-4.14-8.3-6.99-8.8 c0.17,1.41,0.3,2.83,0.36,4.27C112.37,69.05,112.09,73.79,111.31,78.19z" fill="#FFCD88"/>
    <path d="M109.38,59.69c-0.32,0.21,0.3,5.26,0.22,9.83c-0.09,4.92-0.63,8.44-0.11,8.78 c0.25,0.16,0.93,0.14,1.82-0.12c0.78-4.39,1.06-9.13,0.83-14.18c-0.07-1.44-0.19-2.86-0.36-4.27 C110.52,59.51,109.55,59.57,109.38,59.69z" fill="#FFCD88"/>
  </g>
</svg>

<svg viewBox="0 0 128 128" xmlns="http://www.w3.org/2000/svg">
  <defs/>
  <path d="M107.52,85.21 C104.59,85.09 108.65,53.4 108.65,53.4 C108.65,53.4 109.44,53.36 110.66,53.47 C105.74,32.86 89.21,16.83 63.65,16.83 C37.53,16.83 23.68,32.88 18.77,52.74 C19.21,52.72 19.46,52.73 19.46,52.73 C19.46,52.73 24.43,85.77 20.9,85.31 C20.35,85.24 19.56,85.13 18.6,84.93 C23.49,101.61 37.96,111.41 64.87,111.49 C89.44,111.57 103.99,101.57 109.58,85.05 C108.69,85.19 107.98,85.23 107.52,85.21 Z M93.91,86.98 C89.82,94.82 78.22,100.38 64.3,100.13 C46.4,99.8 35.44,94.5 32.46,85.66 C29.55,77.05 35.8,72.29 35.47,65.67 C35.14,59.04 28.73,48.55 37.27,42.25 C49.68,33.09 55.08,45.5 63.7,45.23 C71.82,44.98 80.62,33.83 90.38,42.74 C99.33,50.91 92.26,58.48 92.48,66.21 C92.66,72.62 98.98,77.25 93.91,86.98 Z" fill="#B6885A"/>
  <path d="M90.37,42.74 C80.62,33.83 71.81,44.98 63.69,45.23 C55.07,45.49 49.67,33.09 37.26,42.25 C28.73,48.55 35.13,59.04 35.46,65.67 C35.79,72.3 29.54,77.05 32.45,85.66 C35.43,94.5 46.4,99.8 64.29,100.13 C78.21,100.39 89.81,94.83 93.9,86.98 C98.97,77.25 92.65,72.62 92.46,66.21 C92.25,58.48 99.32,50.91 90.37,42.74 Z M72.36,59.89 C72.64,56.21 75.09,52.72 79,53.1 C82.08,53.4 84.01,55.8 83.9,60.11 C83.76,65.69 80.31,67.47 77.23,67.24 C74.15,67.01 72.09,63.57 72.36,59.89 Z M64.15,66.97 C68.37,67.05 69.92,67.06 69.78,69.17 C69.7,70.5 66.96,73.14 64.31,73.19 C62.07,73.23 58.76,70.99 58.55,69.05 C58.33,66.85 60.01,66.89 64.15,66.97 Z M48.36,53.43 C51.62,53.17 54.6,54.99 55.06,59.58 C55.55,64.42 52.87,67.67 49.61,68 C46.36,68.33 43.39,65.42 42.99,61.5 C42.6,57.58 44.22,53.76 48.36,53.43 Z M84.52,82.34 C84.3,86.54 77.12,91.56 64.03,91.45 C50.33,91.33 43.43,86.64 43.26,82.61 C43.1,78.63 52.26,76.18 63.53,76.31 C81.59,76.54 84.68,79.36 84.52,82.34 Z" fill="#FFCD88"/>
  <path d="M49.62,68 C52.87,67.67 55.56,64.42 55.07,59.58 C54.6,54.99 51.63,53.17 48.37,53.43 C44.23,53.76 42.61,57.58 43.01,61.5 C43.4,65.42 46.36,68.33 49.62,68 Z" fill="#393531"/>
  <path d="M77.22,67.25 C80.3,67.48 83.75,65.7 83.89,60.12 C84,55.8 82.07,53.4 79,53.1 C75.09,52.72 72.64,56.21 72.36,59.89 C72.09,63.57 74.14,67.02 77.22,67.25 Z" fill="#393531"/>
  <path d="M64.32,73.19 C66.97,73.14 69.71,70.5 69.79,69.17 C69.92,67.06 68.38,67.06 64.16,66.97 C60.02,66.89 58.33,66.85 58.57,69.04 C58.77,70.99 62.08,73.23 64.32,73.19 Z" fill="#393531"/>
  <path d="M63.53,76.32 C52.26,76.18 43.1,78.64 43.26,82.62 C43.43,86.65 50.33,91.34 64.03,91.46 C77.12,91.57 84.3,86.54 84.52,82.35 C84.68,79.36 81.59,76.54 63.53,76.32 Z" fill="#FF6B17"/>
  <path d="M123.95,67.96 C124.12,56.04 114.84,53.85 110.65,53.47 C111.14,55.52 111.52,57.61 111.77,59.73 C114.63,60.23 118.96,62.23 118.76,68.53 C118.57,74.52 113.99,77.4 111.3,78.18 C110.87,80.58 110.29,82.88 109.55,85.06 C114.28,84.38 123.76,80.94 123.95,67.96 Z" fill="#B6885A"/>
  <path d="M109.49,78.31 C108.97,77.97 109.51,74.44 109.6,69.53 C109.68,64.96 109.06,59.91 109.38,59.7 C109.56,59.58 110.53,59.52 111.78,59.74 C111.52,57.61 111.15,55.52 110.66,53.48 C109.44,53.37 108.65,53.41 108.65,53.41 C108.65,53.41 104.6,85.1 107.52,85.22 C107.98,85.24 108.69,85.21 109.57,85.08 C110.31,82.9 110.89,80.6 111.32,78.2 C110.42,78.44 109.73,78.47 109.49,78.31 Z" fill="#B6885A"/>
  <path d="M8.96,67.98 C8.96,59.81 15.93,58.83 17.49,59.22 C17.81,57.03 18.24,54.87 18.76,52.75 C15.81,52.88 4.35,54.24 3.87,67.49 C3.4,80.35 13.36,83.88 18.58,84.95 C17.95,82.8 17.48,80.54 17.16,78.16 C14.47,77.59 8.96,75.09 8.96,67.98 Z" fill="#B6885A"/>
  <path d="M19.45,52.73 C19.45,52.73 19.2,52.72 18.76,52.74 C18.24,54.86 17.81,57.02 17.49,59.21 C17.64,59.25 17.76,59.29 17.8,59.35 C17.92,59.53 17.77,63.91 18.02,68.41 C18.29,73.19 18.96,78.1 18.57,78.24 C18.39,78.31 17.87,78.28 17.17,78.14 C17.49,80.51 17.96,82.78 18.59,84.93 C19.55,85.12 20.34,85.24 20.89,85.31 C24.42,85.78 19.45,52.73 19.45,52.73 Z" fill="#B6885A"/>
  <path d="M8.96,67.98 C8.96,75.09 14.47,77.59 17.17,78.15 C16.66,74.33 16.54,70.23 16.8,65.88 C16.93,63.64 17.16,61.42 17.49,59.22 C15.93,58.83 8.96,59.81 8.96,67.98 Z" fill="#FFCD88"/>
  <path d="M17.17,78.15 C17.87,78.29 18.39,78.32 18.57,78.25 C18.96,78.1 18.29,73.2 18.02,68.42 C17.76,63.92 17.92,59.54 17.8,59.36 C17.76,59.3 17.64,59.26 17.49,59.22 C17.17,61.42 16.93,63.64 16.8,65.88 C16.54,70.24 16.66,74.33 17.17,78.15 Z" fill="#FFCD88"/>
  <path d="M111.31,78.19 C114,77.41 118.58,74.53 118.77,68.54 C118.97,62.24 114.63,60.24 111.78,59.74 C111.95,61.15 112.08,62.57 112.14,64.01 C112.37,69.05 112.09,73.79 111.31,78.19 Z" fill="#FFCD88"/>
  <path d="M109.38,59.69 C109.06,59.9 109.68,64.95 109.6,69.52 C109.51,74.44 108.97,77.96 109.49,78.3 C109.74,78.46 110.42,78.44 111.31,78.18 C112.09,73.79 112.37,69.05 112.14,64 C112.07,62.56 111.95,61.14 111.78,59.73 C110.52,59.51 109.55,59.57 109.38,59.69 Z" fill="#FFCD88"/>
</svg>
